svg/baby_male_0203m_negative.svg

<?xml version="1.0" encoding="UTF-8" standalone="no"?>
<!-- Created with Inkscape (http://www.inkscape.org/) -->
<svg id="svg8" xmlns:rdf="http://www.w3.org/1999/02/22-rdf-syntax-ns#" xmlns="http://www.w3.org/2000/svg" xmlns:osb="http://www.openswatchbook.org/uri/2009/osb" height="48" width="48" version="1.1" xmlns:cc="http://creativecommons.org/ns#" viewBox="0 0 12.7 12.7" xmlns:dc="http://purl.org/dc/elements/1.1/">
 <title id="title4753">UIO-icon</title>
 <metadata id="metadata5">
  <rdf:RDF>
   <cc:Work rdf:about="">
    <dc:format>image/svg+xml</dc:format>
    <dc:type rdf:resource="http://purl.org/dc/dcmitype/StillImage"/>
    <dc:title>UIO-icon</dc:title>
    <dc:creator>
     <cc:Agent>
      <dc:title>Joaquín Urbano</dc:title>
     </cc:Agent>
    </dc:creator>
    <dc:rights>
     <cc:Agent>
      <dc:title>GPL</dc:title>
     </cc:Agent>
    </dc:rights>
   </cc:Work>
  </rdf:RDF>
 </metadata>
 <g id="layer1" transform="translate(0,-284.3)">
  <path id="rect7111" d="m0 0v48h48v-48h-48zm20.654 3.998c2.343-0.103 4.223 1.5529-0.099 2.545 2.852-1.4363 0.68-2.0604-0.862-0.795-1.758 1.5916 2.355 1.4042 3.233 2.0508a14.273 12.398 0 0 1 1.074 -0.039 14.273 12.398 0 0 1 13.605 8.6622 4.1875 4.1875 0 0 1 0.93 -0.11 4.1875 4.1875 0 0 1 4.188 4.188 4.1875 4.1875 0 0 1 -0.135 1.043 6.8536 6.8536 0 0 0 -0.076 -0.094 6.8536 6.8536 0 0 1 1.488 4.254 6.8536 6.8536 0 0 1 -6.854 6.854 6.8536 6.8536 0 0 1 -5.029 -2.209 14.273 12.398 0 0 1 -8.117 2.209 14.273 12.398 0 0 1 -13.342 -8.034 4.1875 4.1875 0 0 1 -1.158 0.165 4.1875 4.1875 0 0 1 -4.1875 -4.188 4.1875 4.1875 0 0 1 4.1875 -4.188 4.1875 4.1875 0 0 1 0.912 0.104 14.273 12.398 0 0 1 8.856 -7.9394c-1.482-0.5149-2.542-1.3527-1.555-3.0215 0.716-1.0011 1.877-1.4102 2.941-1.4571zm3.346 5.4629a12.315 10.697 0 0 0 -12.293 10.312 2.326 2.326 0 0 0 -2.207 -1.599 2.326 2.326 0 0 0 -2.3262 2.326 2.326 2.326 0 0 0 2.3262 2.326 2.326 2.326 0 0 0 2.242 -1.717 12.315 10.697 0 0 0 12.258 9.746 12.315 10.697 0 0 0 7.084 -1.964 6.8536 6.8536 0 0 1 -0.791 -3.188 6.8536 6.8536 0 0 1 5.916 -6.781 12.315 10.697 0 0 0 -12.209 -9.4611zm-3.982 7.5391a1.5082 1.5082 0 0 1 1.507 1.508 1.5082 1.5082 0 0 1 -1.507 1.508 1.5082 1.5082 0 0 1 -1.508 -1.508 1.5082 1.5082 0 0 1 1.508 -1.508zm8 0a1.5082 1.5082 0 0 1 1.507 1.508 1.5082 1.5082 0 0 1 -1.507 1.508 1.5082 1.5082 0 0 1 -1.508 -1.508 1.5082 1.5082 0 0 1 1.508 -1.508zm10.517 1.174a2.326 2.326 0 0 0 -1.642 0.685 6.8536 6.8536 0 0 0 -0.086 0.008 6.8536 6.8536 0 0 1 0.339 -0.017 6.8536 6.8536 0 0 1 3.635 1.046 2.326 2.326 0 0 0 -2.246 -1.722zm-1.389 1.736a5.7929 5.7929 0 0 0 -5.792 5.793 5.7929 5.7929 0 0 0 5.792 5.793 5.7929 5.7929 0 0 0 5.793 -5.793 5.7929 5.7929 0 0 0 -5.793 -5.793zm-0.085 1.008c0.596-0.017 1.185 0.146 1.687 0.469 1.377 0.884 1.776 2.716 0.893 4.093-0.37 0.575-0.927 1.006-1.577 1.217l0.495 2.258 0.937-0.728-0.988 2.263-1.791-1.656 1.156 0.283-0.498-2.287c-0.643 0.051-1.284-0.108-1.828-0.455-1.378-0.884-1.779-2.718-0.895-4.096 0.529-0.823 1.431-1.331 2.409-1.361zm0.085 0.701c-0.77 0-1.486 0.391-1.902 1.039-0.675 1.051-0.371 2.45 0.68 3.125s2.45 0.37 3.125-0.681c0.675-1.052 0.37-2.451-0.682-3.125-0.364-0.234-0.788-0.358-1.221-0.358zm-17.974 2.022c0.247-0.023 0.519 0.174 0.586 0.658 0.2 1.574 2.046 2.78 4.26 2.781 2.287-0.047 4.118-1.128 5.289-2.781-0.204 1.979-2.511 3.511-5.289 3.512-2.777-0.003-5.081-1.534-5.284-3.512-0.032-0.394 0.191-0.636 0.438-0.658zm-15.172 10.359h40v10h-40v-10zm3.8672 1.096c-0.8281 0-1.4624 0.274-1.9043 0.824-0.4384 0.55-0.6582 1.357-0.6582 2.418v1.398c0.0104 1.02 0.2354 1.802 0.6738 2.348s1.0703 0.82 1.8985 0.82c0.8385 0 1.4752-0.279 1.9101-0.836 0.4349-0.556 0.6519-1.359 0.6519-2.41v-1.398c-0.01-1.02-0.233-1.801-0.6714-2.344-0.4384-0.546-1.0723-0.82-1.9004-0.82zm6.0858 0c-0.511 0-0.969 0.111-1.373 0.33-0.404 0.216-0.717 0.514-0.939 0.896-0.22 0.383-0.329 0.805-0.329 1.268h1.514c0-0.383 0.096-0.689 0.291-0.922 0.199-0.237 0.468-0.356 0.809-0.356 0.316 0 0.562 0.097 0.732 0.292 0.171 0.191 0.256 0.457 0.256 0.794 0 0.247-0.082 0.507-0.246 0.782-0.16 0.275-0.409 0.598-0.746 0.966l-2.459 2.62v1.033h5.209v-1.215h-3.268l1.729-1.822c0.473-0.519 0.807-0.972 1.002-1.362 0.195-0.389 0.293-0.772 0.293-1.148 0-0.686-0.22-1.216-0.655-1.592-0.431-0.376-1.037-0.564-1.82-0.564zm10.344 0c-0.828 0-1.463 0.274-1.904 0.824-0.439 0.55-0.659 1.357-0.659 2.418v1.398c0.011 1.02 0.236 1.802 0.674 2.348 0.439 0.546 1.072 0.82 1.901 0.82 0.838 0 1.475-0.279 1.91-0.836 0.435-0.556 0.652-1.359 0.652-2.41v-1.398c-0.01-1.02-0.235-1.801-0.674-2.344-0.438-0.546-1.072-0.82-1.9-0.82zm5.998 0c-0.463 0-0.887 0.088-1.274 0.265-0.382 0.178-0.682 0.426-0.898 0.743-0.212 0.313-0.318 0.667-0.318 1.064h1.507c0-0.254 0.099-0.459 0.293-0.615 0.195-0.16 0.436-0.241 0.725-0.241 0.32 0 0.571 0.086 0.752 0.256 0.184 0.171 0.277 0.409 0.277 0.715 0 0.317-0.093 0.571-0.277 0.762s-0.467 0.287-0.85 0.287h-0.804v1.18h0.799c0.835 0 1.252 0.378 1.252 1.136 0 0.314-0.102 0.567-0.307 0.758-0.202 0.188-0.484 0.282-0.842 0.282-0.313 0-0.577-0.091-0.793-0.272-0.212-0.181-0.318-0.414-0.318-0.699h-1.508c0 0.657 0.24 1.188 0.721 1.588 0.483 0.4 1.104 0.599 1.863 0.599 0.811 0 1.46-0.204 1.951-0.611 0.494-0.407 0.742-0.948 0.742-1.623 0-0.418-0.106-0.78-0.318-1.086-0.209-0.306-0.527-0.534-0.955-0.688 0.344-0.156 0.622-0.381 0.834-0.673 0.212-0.293 0.318-0.613 0.318-0.961 0-0.675-0.228-1.203-0.683-1.586-0.456-0.386-1.085-0.58-1.889-0.58zm3.898 0.105v7.598h1.567v-2.076l-0.158-3.58 2.046 5.656h1.077l2.05-5.662-0.156 3.586v2.076h1.57v-7.598h-2.056l-1.942 5.512-1.951-5.512h-2.047zm-26.326 1.115c0.3653 0 0.6322 0.145 0.8027 0.434 0.174 0.285 0.2617 0.743 0.2617 1.373v1.807c-0.0069 0.595-0.0923 1.035-0.2558 1.324-0.1636 0.289-0.43 0.434-0.7988 0.434-0.3724 0-0.644-0.15-0.8145-0.45-0.167-0.302-0.25-0.763-0.25-1.383v-1.847c0.0104-0.581 0.0986-1.006 0.2656-1.278 0.1705-0.274 0.4342-0.414 0.7891-0.414zm16.43 0c0.365 0 0.634 0.145 0.805 0.434 0.174 0.285 0.259 0.743 0.259 1.373v1.807c-0.007 0.595-0.09 1.035-0.254 1.324-0.163 0.289-0.43 0.434-0.798 0.434-0.373 0-0.644-0.15-0.815-0.45-0.167-0.302-0.25-0.763-0.25-1.383v-1.847c0.011-0.581 0.099-1.006 0.266-1.278 0.17-0.274 0.432-0.414 0.787-0.414zm-6.639 2.622v1.216h2.94v-1.216h-2.94z" fill-rule="evenodd" transform="matrix(.26458 0 0 .26458 0 284.3)" fill="#333"/>
 </g>
</svg>

<svg width="48" height="48" viewBox="0 0 48 48" fill="none" xmlns="http://www.w3.org/2000/svg">
<path fill-rule="evenodd" clip-rule="evenodd" d="M0 0V47.9994H47.9994V0H0ZM20.6537 3.99795C22.9967 3.89495 24.8767 5.55083 20.5547 6.54292C23.4067 5.10664 21.2347 4.48254 19.6928 5.74793C17.9348 7.33951 22.0477 7.15211 22.9257 7.7987C23.283 7.77399 23.6413 7.76098 23.9997 7.7597C27.0327 7.76056 29.9866 8.60067 32.4329 10.1582C34.8791 11.7157 36.6906 13.9096 37.6045 16.4218C37.9094 16.3505 38.2214 16.3136 38.5345 16.3118C39.0845 16.3117 39.6291 16.42 40.1373 16.6305C40.6454 16.8409 41.1071 17.1494 41.496 17.5383C41.8849 17.9272 42.1934 18.3889 42.4038 18.897C42.6143 19.4051 42.7225 19.9498 42.7225 20.4997C42.7215 20.8517 42.6761 21.2021 42.5875 21.5427C42.5624 21.5112 42.5371 21.4798 42.5115 21.4487C43.4728 22.6584 43.9972 24.1575 43.9995 25.7027C43.9995 26.6028 43.8223 27.494 43.4778 28.3256C43.1334 29.1572 42.6286 29.9128 41.9921 30.5492C41.3556 31.1857 40.6001 31.6906 39.7685 32.035C38.9369 32.3794 38.0456 32.5566 37.1455 32.5566C36.2003 32.5551 35.2655 32.3581 34.4001 31.9779C33.5346 31.5978 32.7572 31.0427 32.1166 30.3476C29.7323 31.7834 26.9009 32.554 23.9997 32.5566C21.0995 32.5535 18.2692 31.783 15.8858 30.3478C13.5023 28.9126 11.6787 26.8807 10.6579 24.5227C10.2815 24.6316 9.89169 24.6871 9.49988 24.6877C8.94994 24.6877 8.40538 24.5794 7.8973 24.3689C7.38922 24.1584 6.92758 23.8499 6.53873 23.461C6.14988 23.0721 5.84145 22.6105 5.63104 22.1024C5.42063 21.5943 5.31237 21.0497 5.31243 20.4997C5.31237 19.9498 5.42063 19.4052 5.63104 18.8971C5.84145 18.389 6.14988 17.9273 6.53873 17.5384C6.92758 17.1496 7.38922 16.8411 7.8973 16.6306C8.40538 16.4201 8.94994 16.3118 9.49988 16.3118C9.80677 16.3129 10.1126 16.3478 10.4119 16.4158C11.0803 14.5875 12.228 12.9189 13.7647 11.5413C15.3014 10.1637 17.1852 9.11454 19.2678 8.47649C17.7858 7.9616 16.7258 7.12381 17.7128 5.45503C18.4288 4.45394 19.5898 4.04485 20.6537 3.99795ZM23.9997 9.46078C20.8128 9.46393 17.7513 10.5401 15.4589 12.4631C13.1665 14.3861 11.8216 17.0062 11.7069 19.7727C11.5539 19.3079 11.2583 18.9031 10.8621 18.6161C10.4658 18.329 9.98918 18.1742 9.49988 18.1737C9.19441 18.1736 8.89193 18.2338 8.60971 18.3507C8.32749 18.4675 8.07105 18.6389 7.85504 18.8549C7.63903 19.0709 7.46769 19.3273 7.35078 19.6095C7.23388 19.8917 7.17371 20.1942 7.17371 20.4996C7.17371 20.8051 7.23388 21.1076 7.35078 21.3898C7.46769 21.672 7.63903 21.9284 7.85504 22.1444C8.07105 22.3604 8.32749 22.5317 8.60971 22.6486C8.89193 22.7655 9.19441 22.8256 9.49988 22.8256C10.0102 22.825 10.5061 22.6566 10.9112 22.3463C11.3164 22.036 11.6082 21.6011 11.7419 21.1086C12.0152 23.7692 13.4247 26.2446 15.6931 28.0481C17.9614 29.8516 20.9246 30.8527 23.9997 30.8545C26.5376 30.8495 29.0117 30.1636 31.0836 28.8905C30.5654 27.9077 30.294 26.8136 30.2926 25.7026C30.2946 24.0487 30.8945 22.4514 31.9818 21.2052C33.069 19.9589 34.5703 19.1479 36.2085 18.9217C35.8601 16.3197 34.4247 13.9193 32.1744 12.1755C29.9241 10.4317 27.0154 9.46569 23.9997 9.46068V9.46078ZM20.0177 16.9998C20.4175 17.0001 20.8008 17.1591 21.0833 17.4419C21.3659 17.7246 21.5247 18.108 21.5247 18.5078C21.5247 18.9075 21.3659 19.2909 21.0833 19.5737C20.8008 19.8564 20.4175 20.0154 20.0177 20.0158C19.6178 20.0157 19.2343 19.8568 18.9515 19.574C18.6687 19.2912 18.5098 18.9077 18.5098 18.5078C18.5098 18.1078 18.6687 17.7243 18.9515 17.4415C19.2343 17.1587 19.6178 16.9998 20.0177 16.9998ZM28.0176 16.9998C28.4174 17.0001 28.8007 17.1591 29.0832 17.4419C29.3658 17.7246 29.5246 18.108 29.5246 18.5078C29.5246 18.9075 29.3658 19.2909 29.0832 19.5737C28.8007 19.8564 28.4174 20.0154 28.0176 20.0158C27.6177 20.0157 27.2342 19.8568 26.9514 19.574C26.6686 19.2912 26.5097 18.9077 26.5097 18.5078C26.5097 18.1078 26.6686 17.7243 26.9514 17.4415C27.2342 17.1587 27.6177 16.9998 28.0176 16.9998ZM38.5345 18.1738C37.918 18.1755 37.3275 18.4219 36.8925 18.8588C36.8639 18.8612 36.8352 18.8639 36.8065 18.8668C36.9194 18.8583 37.0324 18.8526 37.1455 18.8498C38.4313 18.8505 39.6909 19.213 40.7805 19.8957C40.6476 19.4017 40.3556 18.9652 39.9495 18.6539C39.5435 18.3426 39.0462 18.1738 38.5345 18.1738ZM37.1455 19.9098C35.6093 19.91 34.1361 20.5204 33.0499 21.6068C31.9638 22.6931 31.3536 24.1665 31.3536 25.7027C31.3536 27.2389 31.9638 28.7122 33.0499 29.7986C34.1361 30.8849 35.6093 31.4954 37.1455 31.4956C37.9063 31.4956 38.6596 31.3458 39.3624 31.0547C40.0652 30.7636 40.7039 30.3369 41.2418 29.7989C41.7797 29.261 42.2064 28.6224 42.4975 27.9196C42.7886 27.2167 42.9385 26.4634 42.9385 25.7027C42.9385 24.9419 42.7886 24.1886 42.4975 23.4858C42.2064 22.783 41.7797 22.1444 41.2418 21.6064C40.7039 21.0685 40.0652 20.6418 39.3624 20.3507C38.6596 20.0596 37.9063 19.9097 37.1455 19.9098ZM37.0605 20.9177C37.6565 20.9007 38.2455 21.0637 38.7475 21.3867C40.1245 22.2707 40.5235 24.1027 39.6405 25.4797C39.2705 26.0547 38.7135 26.4857 38.0635 26.6967L38.5585 28.9546L39.4955 28.2266L38.5075 30.4896L36.7165 28.8336L37.8725 29.1166L37.3745 26.8297C36.7315 26.8807 36.0905 26.7217 35.5466 26.3747C34.1686 25.4907 33.7676 23.6567 34.6516 22.2787C35.1806 21.4557 36.0825 20.9477 37.0605 20.9177ZM37.1455 21.6187C36.3755 21.6187 35.6596 22.0097 35.2436 22.6577C34.5686 23.7087 34.8726 25.1077 35.9236 25.7827C36.9745 26.4577 38.3735 26.1527 39.0485 25.1017C39.7235 24.0497 39.4185 22.6507 38.3665 21.9767C38.0025 21.7427 37.5785 21.6187 37.1455 21.6187ZM19.1718 23.6407C19.4188 23.6177 19.6908 23.8147 19.7578 24.2987C19.9577 25.8727 21.8037 27.0787 24.0177 27.0797C26.3047 27.0327 28.1356 25.9517 29.3066 24.2987C29.1026 26.2777 26.7957 27.8097 24.0177 27.8107C21.2407 27.8077 18.9368 26.2767 18.7338 24.2987C18.7018 23.9047 18.9248 23.6627 19.1718 23.6407ZM3.99995 33.9996H43.9995V43.9995H3.99995V33.9996ZM7.8671 35.0956C7.03901 35.0956 6.40472 35.3696 5.96283 35.9195C5.52443 36.4695 5.30463 37.2765 5.30463 38.3375V39.7355C5.31503 40.7555 5.54003 41.5375 5.97842 42.0835C6.41682 42.6295 7.04871 42.9035 7.8769 42.9035C8.71539 42.9035 9.35208 42.6245 9.78698 42.0675C10.2219 41.5115 10.4389 40.7085 10.4389 39.6575V38.2595C10.4289 37.2395 10.2059 36.4585 9.76748 35.9155C9.32908 35.3696 8.69519 35.0956 7.8671 35.0956ZM13.9528 35.0956C13.4418 35.0956 12.9838 35.2066 12.5798 35.4256C12.1758 35.6416 11.8629 35.9395 11.6409 36.3215C11.4209 36.7045 11.3119 37.1265 11.3119 37.5895H12.8258C12.8258 37.2065 12.9218 36.9005 13.1168 36.6675C13.3158 36.4305 13.5848 36.3115 13.9258 36.3115C14.2418 36.3115 14.4878 36.4085 14.6578 36.6035C14.8288 36.7945 14.9138 37.0605 14.9138 37.3975C14.9138 37.6445 14.8318 37.9045 14.6678 38.1795C14.5078 38.4545 14.2588 38.7775 13.9218 39.1455L11.4629 41.7655V42.7985H16.6718V41.5835H13.4038L15.1328 39.7615C15.6058 39.2425 15.9398 38.7895 16.1348 38.3995C16.3298 38.0105 16.4278 37.6275 16.4278 37.2515C16.4278 36.5655 16.2078 36.0355 15.7728 35.6596C15.3418 35.2836 14.7358 35.0956 13.9528 35.0956ZM24.2967 35.0956C23.4687 35.0956 22.8337 35.3696 22.3927 35.9195C21.9537 36.4695 21.7337 37.2765 21.7337 38.3375V39.7355C21.7447 40.7555 21.9697 41.5375 22.4077 42.0835C22.8467 42.6295 23.4797 42.9035 24.3087 42.9035C25.1467 42.9035 25.7837 42.6245 26.2187 42.0675C26.6537 41.5115 26.8707 40.7085 26.8707 39.6575V38.2595C26.8607 37.2395 26.6357 36.4585 26.1967 35.9155C25.7587 35.3696 25.1247 35.0956 24.2967 35.0956ZM30.2946 35.0956C29.8316 35.0956 29.4076 35.1836 29.0206 35.3606C28.6386 35.5386 28.3386 35.7865 28.1226 36.1035C27.9106 36.4165 27.8047 36.7705 27.8047 37.1675H29.3116C29.3116 36.9135 29.4106 36.7085 29.6046 36.5525C29.7996 36.3925 30.0406 36.3115 30.3296 36.3115C30.6496 36.3115 30.9006 36.3975 31.0816 36.5675C31.2656 36.7385 31.3586 36.9765 31.3586 37.2825C31.3586 37.5995 31.2656 37.8535 31.0816 38.0445C30.8976 38.2355 30.6146 38.3315 30.2316 38.3315H29.4276V39.5115H30.2266C31.0616 39.5115 31.4786 39.8895 31.4786 40.6475C31.4786 40.9615 31.3766 41.2145 31.1716 41.4055C30.9696 41.5935 30.6876 41.6875 30.3296 41.6875C30.0166 41.6875 29.7526 41.5965 29.5366 41.4155C29.3246 41.2345 29.2186 41.0015 29.2186 40.7165H27.7107C27.7107 41.3735 27.9506 41.9045 28.4316 42.3045C28.9146 42.7045 29.5356 42.9035 30.2946 42.9035C31.1056 42.9035 31.7546 42.6995 32.2456 42.2925C32.7396 41.8855 32.9876 41.3445 32.9876 40.6695C32.9876 40.2515 32.8816 39.8895 32.6696 39.5835C32.4606 39.2775 32.1426 39.0495 31.7146 38.8955C32.0586 38.7395 32.3366 38.5145 32.5486 38.2225C32.7606 37.9295 32.8666 37.6095 32.8666 37.2615C32.8666 36.5865 32.6386 36.0585 32.1836 35.6756C31.7276 35.2896 31.0986 35.0956 30.2946 35.0956ZM34.1926 35.2006V42.7985H35.7595V40.7225L35.6016 37.1425L37.6475 42.7985H38.7245L40.7745 37.1365L40.6185 40.7225V42.7985H42.1885V35.2006H40.1325L38.1905 40.7125L36.2395 35.2006H34.1926ZM7.8669 36.3155C8.2322 36.3155 8.49909 36.4605 8.66959 36.7495C8.84359 37.0345 8.93129 37.4925 8.93129 38.1225V39.9295C8.92439 40.5245 8.83899 40.9645 8.67549 41.2535C8.51189 41.5425 8.2455 41.6875 7.8767 41.6875C7.50431 41.6875 7.23271 41.5375 7.06221 41.2375C6.89521 40.9355 6.81221 40.4745 6.81221 39.8545V38.0075C6.82261 37.4265 6.91081 37.0015 7.07781 36.7295C7.24831 36.4555 7.51201 36.3155 7.8669 36.3155ZM24.2967 36.3155C24.6617 36.3155 24.9307 36.4605 25.1017 36.7495C25.2757 37.0345 25.3607 37.4925 25.3607 38.1225V39.9295C25.3537 40.5245 25.2707 40.9645 25.1067 41.2535C24.9437 41.5425 24.6767 41.6875 24.3087 41.6875C23.9357 41.6875 23.6647 41.5375 23.4937 41.2375C23.3267 40.9355 23.2437 40.4745 23.2437 39.8545V38.0075C23.2547 37.4265 23.3427 37.0015 23.5097 36.7295C23.6797 36.4555 23.9417 36.3155 24.2967 36.3155ZM17.6578 38.9375V40.1535H20.5977V38.9375H17.6578Z" fill="#333333"/>
</svg>
